X: 10241
T: Do You Want Any More?
R: jig
M: 6/8
K: Dmixolydian
E|FDF A2B|cAd cAG|Ad^c d2e|fed cAG|
FDF A2B|cAd cAG|Adc AGE|FDD D2:|
|:e|fdg fdc|Add ^cde|fdg fdc|AB^c dfg|
aba g2e|fed cAG|Adc AGE|FDD D2:|

